X: 1
T:Foul Weather Call
M:2/4
L:1/16
R:Polka
K:D
gfed e2a2|gfed dcBA|d2A2 BcdB|g2f2e4|gfed e2a2|gfed dcBA|d3B BcdG|F2E2D4
::
GFED A2A2|Bcde dcBA|d2A2 BcdB|g2f2e4|gfed e2a2|gfed dcBA|d3A BcdG|F2E2D4
:|
